X: 18898
T: Inara's
R: jig
M: 6/8
K: Dmajor
|:D3 d2 (c|c2) A GFE|F2 D B,D (C|C4) A,2|DCD E3|
FED EFG|1 AGF AGF|E3 EFE:|2 AGF E2 F|D3 ABc||
|:d2 c3 e|fed cBA|d2 B2 AB|def e2 c|
d2 c2 Ac|def fed|fdf ged|cAc d3:|

